src/actions/symbolic/am-cpu-symbolic.svg

<svg width="16" height="16" version="1.1" viewBox="0 0 16 16" xmlns="http://www.w3.org/2000/svg">
 <path d="m4.5 0c-0.277 0-0.5 0.223-0.5 0.5v0.5c-1.662 0-3 1.338-3 3h-0.5c-0.277 0-0.5 0.223-0.5 0.5s0.223 0.5 0.5 0.5h0.5v2.5h-0.5c-0.277 0-0.5 0.223-0.5 0.5s0.223 0.5 0.5 0.5h0.5v2.5h-0.5c-0.277 0-0.5 0.223-0.5 0.5s0.223 0.5 0.5 0.5h0.5c0 1.662 1.338 3 3 3v0.5c0 0.277 0.223 0.5 0.5 0.5s0.5-0.223 0.5-0.5v-0.5h2.5v0.5c0 0.277 0.223 0.5 0.5 0.5s0.5-0.223 0.5-0.5v-0.5h2.5v0.5c0 0.277 0.223 0.5 0.5 0.5s0.5-0.223 0.5-0.5v-0.5c1.662 0 3-1.338 3-3h0.5c0.277 0 0.5-0.223 0.5-0.5s-0.223-0.5-0.5-0.5h-0.5v-2.5h0.5c0.277 0 0.5-0.223 0.5-0.5s-0.223-0.5-0.5-0.5h-0.5v-2.5h0.5c0.277 0 0.5-0.223 0.5-0.5s-0.223-0.5-0.5-0.5h-0.5c0-1.662-1.338-3-3-3v-0.5c0-0.277-0.223-0.5-0.5-0.5s-0.5 0.223-0.5 0.5v0.5h-2.5v-0.5c0-0.277-0.223-0.5-0.5-0.5s-0.5 0.223-0.5 0.5v0.5h-2.5v-0.5c0-0.277-0.223-0.5-0.5-0.5zm-0.5 2h8c1.108 0 2 0.892 2 2v1 2.5 1 3.5c0 1.108-0.892 2-2 2h-8c-1.108 0-2-0.892-2-2v-1-7c0-1.108 0.892-2 2-2zm2 2c-1.108 0-2 0.892-2 2v4c0 1.108 0.892 2 2 2h4c1.108 0 2-0.892 2-2v-4c0-1.108-0.892-2-2-2h-4zm0 1v1h1v-1h2v1h1v-1c0.554 0 1 0.446 1 1h-1v1h1v2h-1v1h1c0 0.554-0.446 1-1 1v-1h-1v1h-2v-1h-1v1c-0.554 0-1-0.446-1-1h1v-1h-1v-2h1v-1h-1c0-0.554 0.446-1 1-1zm0 2v1 1h1v-1-1h-1zm1 0h1 1v-1h-1-1v1zm2 0v1 1h1v-1-1h-1zm0 2h-1-1v1h1 1v-1z" fill="#363636"/>
</svg>

<svg xmlns="http://www.w3.org/2000/svg" width="16" height="16">
    <path fill="#050505" fill-opacity=".7" d="M4.5 0c-.277 0-.5.223-.5.5V1C2.338 1 1 2.338 1 4H.5a.499.499 0 1 0 0 1H1v2.5H.5a.499.499 0 1 0 0 1H1V11H.5a.499.499 0 1 0 0 1H1c0 1.662 1.338 3 3 3v.5a.499.499 0 1 0 1 0V15h2.5v.5a.499.499 0 1 0 1 0V15H11v.5a.499.499 0 1 0 1 0V15c1.662 0 3-1.338 3-3h.5a.499.499 0 1 0 0-1H15V8.5h.5a.499.499 0 1 0 0-1H15V5h.5a.499.499 0 1 0 0-1H15c0-1.662-1.338-3-3-3V.5a.499.499 0 1 0-1 0V1H8.5V.5a.499.499 0 1 0-1 0V1H5V.5c0-.277-.223-.5-.5-.5zM4 2h8c1.108 0 2 .892 2 2v8c0 1.108-.892 2-2 2H4c-1.108 0-2-.892-2-2V4c0-1.108.892-2 2-2zm2 2c-1.108 0-2 .892-2 2v4c0 1.108.892 2 2 2h4c1.108 0 2-.892 2-2V6c0-1.108-.892-2-2-2H6zm0 1v1h1V5h2v1h1V5c.554 0 1 .446 1 1h-1v1h1v2h-1v1h1c0 .554-.446 1-1 1v-1H9v1H7v-1H6v1c-.554 0-1-.446-1-1h1V9H5V7h1V6H5c0-.554.446-1 1-1zm0 2v2h1V7H6zm1 0h2V6H7v1zm2 0v2h1V7H9zm0 2H7v1h2V9z"/>
</svg>
